!!!COM: Bach, Johann Sebastian
!!!CDT: 1685/3//-1750/7/28/
!!!OTL@@DE: Komm, Gott Schoepfer, heiliger Geist
!!!AGN: 4-Part Chorale
!!!SCT: BH 187
!!!SCT: BWV 370
**harm	**root	**kern	**kern	**kern	**kern
!	!	!bass	!tenor	!alto	!soprno
*	*Iorgan	*Iorgan	*Iorgan	*Iorgan	*Iorgan
*M4/4	*M4/4	*M4/4	*M4/4	*M4/4	*M4/4
*met(c)	*met(c)	*met(c)	*met(c)	*met(c)	*met(c)
*MM60	*MM60	*MM60	*MM60	*MM60	*MM60
*k[f#]	*k[f#]	*k[f#]	*k[f#]	*k[f#]	*k[f#]
*D:	*D:	*D:	*D:	*D:	*D:
I	4GG	4D	4F#	8A	4d
.	.	.	.	8B	.
=1	=1	=1	=1	=1	=1
-VII	4FF	4C	4G	[4c	4e
IV	4CC	4GG	4G	8c]	4d
.	.	.	.	[8B	.
v	4DD	4AA	4E	8B]	4c
.	.	.	.	16A	.
.	.	.	.	16G	.
vi	4EE	4BB	8D	8F#	4d
.	.	.	16G	[8B	.
.	.	.	16F#	.	.
=2	=2	=2	=2	=2	=2
ii	8AA	4EE	8G	8B]	4g
-VIIb	8FF	.	8c	8G	.
I	4GG	4DD	4F#	8d	4a
.	.	.	.	8c	.
IV;	4CC;	4GG;	4D;	4B;	4g;
-VII	4FF	4C	4E	8G	4g
.	.	.	.	8A	.
=3	=3	=3	=3	=3	=3
vi	4EE	4BB	8F#	4B	4d
.	.	.	8G	.	.
iiiob	4BB	4AA	4A	4c	4f#
IV	4CC	4.GG	4B	4d	4g
I	4GG	.	[4A	4d	4a
.	.	8FF#	.	.	.
=4	=4	=4	=4	=4	=4
IV	4CC	4GG	8A]	[4d	4b
.	.	.	16G	.	.
.	.	.	16F#	.	.
IV	8CC	4GGG	8G	8d]	4b
vii7c	8FF#	.	8E	8c#	.
I;	4GG;	4DD;	4F#;	4d;	4a;
I	4GG	4D	4F#	4d	4a
!!linebreak: 2
=5	=5	=5	=5	=5	=5
IV	4CC	4GG	8G	4d	8b
.	.	.	8F#	.	8a
IVb	4CC	4BB	4G	[4d	4g
-VII	4FF	4C	4G	8d]	4e
.	.	.	.	[8c	.
IV	4CC	4G	4G	8c]	4d
.	.	.	.	8B	.
=6	=6	=6	=6	=6	=6
I	4GG	8D	4A	4d	4f#
.	.	8C	.	.	.
vii/v	4CC#	4BB	4B	4d	4g#
v;	4DD;	4AA;	4c;	4e;	4a;
vi	4EE	4BB	4F#	4B	4d
=7	=7	=7	=7	=7	=7
ii	4AA	8EE	4E	8B	4g
.	.	8FF#	.	8A	.
iib	4AA	4GG	4E	[4B	4e
v	8DD	4AA	8E	8B]	4c
-IIIb	8BB-	.	8F	16A	.
.	.	.	.	16B	.
-VIIb	4FF	4EE	4G	[4c	4e
=8	=8	=8	=8	=8	=8
I7b	4GG	4FF#	[4A	4c]	2d
IV	4CC	4GG	8A]	4B	.
.	.	.	[8G	.	.
I;	4GG;	4DD;	8G]	4A;	4d;
.	.	.	8F#;	.	.
==	==	==	==	==	==
*-	*-	*-	*-	*-	*-
!!chor2scor: -l 2 -s 0.6 -o %b.pmx
!!!YEC: Copyright 1994, David Huron
!!!YEC: Changes/Additions 2001 by Craig Stuart Sapp
!!!YEN: United States of America
!!!SMA: 371 Bach Chorales, edited by Ludwig Erk, C.F. Peters
!!!PDT: 1850, 1865
!!!ONB: Harmony and Root analysis done manually
!!!ONB: Actual key is G Mixolydian 
